X:1
T:Seria's Gate - Origin
T:Seria's Gate - Origin
T:Where My Journey Is About To End
%%score { 1 | 2 }
L:1/8
Q:1/4=116
M:4/4
K:C
V:1 treble nm="Piano" snm="Pno."
V:2 bass 
V:1
 (3:2:2z2 F (3:2:2[EG]2 !^![Ec]- [Ec]2 G2- | (3:2:2G2 D (3:2:2G2 !^![Gd]- [Gd]2 G2 | %2
 (3:2:2[Dd]2 D (3:2:2[CG]2 [DB]- [DB]2 (3:2:2[Cc]2 [Dd]- | [Dd]2 (3:2:2[Cc]2 [Dd]- [Dd]2 [Ee]2 | %4
 (3:2:2D2 F (3:2:2A2 [Dd]- [Dd]2- (3:2:2[Dd]2 C- | C2 (3:2:2[Gg]2 [Ff]- [Ff]2 (3:2:2[Ee]2 [Dd]- | %6
 [Dd]2 (3:2:2G2 B- B4 | (3z2 c2 !^![Gg]2 (3:2:4!^![Ff]2 !^![Ee]2 [Cc][G,G] | %8
 [F,G,C]2 (3[CEG]D[Ec]- [Ec]2 (3ede | [EABd]2 (3:2:2G2 [Dd] (3:2:2G2 E (3:2:2B,2 E | %10
 [DGd]2 (3:2:2[EGe]2 [FBf]- [FBf]2 (3:2:2[Gdg]2 [Ff]- | %11
 [Ff]2 (3:2:2G2 [ae']- [ae']2 (3:2:2[ec']2 c | [FAf]2 F4{/e} (3:2:2[FAf]2 c- | %13
 (3:2:2c2 [FA]- (3:2:2[FA]2 A (3:2:2[Ff]2 [Ee] (3:2:2G2 c | [Gcf]4 (3:2:2G2 A (3[CG]DC | %15
 [B,DG]2 (3:2:2[dd']2 [f'c''] (3c'bf B2 | [EGBd]6- (3:2:2[EGBd]2 c | %17
 !^![cc']2- (3:2:2[cc']2 !^![Bb]- [Bb]2 !^![Gg]2 | [GAcg]2- (3[GAcg]A!^!c (3:2:2[FG]2 F- F>C | %19
 (3:2:2[CFG]2 c (3:2:2e2 [Gc] (3:2:2g2 c (3:2:2[Ee]2 [DFd]- | [DFd]2 (3[DG]D[Dd] D2 G2 | %21
 (3[DF]cB (3[FG]DC (3[B,F]C[B,G] (3:2:2[B,G]2 G | [A,CG]2 (3c'g'a'- a'2 [FGe]2 | %23
 (3:2:2[CFGAc]2 [DFGBd]- (3:2:2[DFGBd]2 [EAe]- (3[EAe]E[FAc]- (3[FAc]E[DGBd]- | %24
 [DGBd]2 (3gd'g' (3:2:2e'2 g (3:2:2e2 g | !^![CEGc]2 (3:2:2C2 [DGBd]- [DGBd]2 [EGce]2 | %26
 (3:2:2[CFAc]2 E (3:2:2[CF]2 [CFc]- [CFc]2 [DF]2 | %27
 (3:2:2[FAc]2 [CG] (3:2:2F2 [CGc]- [CGc]2 (3:2:2[CA]2 [C^G] | %28
 [CDG]2 (3:2:2[Gd]2 [Bg]- (3:2:2[Bg]2 A (3:2:2D2 G | %29
 !arpeggio![GBdg]2 (3:2:2D2 [EGAce]- (3:2:2[EGAce]2 E (3:2:2[GB]2 c | %30
 (3:2:2[CG]2 F (3:2:2[CG]2 [CFc] G2 (3:2:2[CFGB]2 G | %31
 (3:2:2[CFG]2 F (3:2:2C2 [FGc] (3:2:2C2 F (3:2:2[CFf]2 [CE] | %32
 [G,B,D]2 (3[DG]D[DGd] (3:2:2D2 D (3:2:2[DG]2 G- | (3:2:2G2 D (3[DG][DG][DG] [DGc]2 (3:2:2[DB]2 G | %34
 [A,FG]2 (3:2:2C2 C- C2 [Ge]2 | G2 (3:2:2e2 c c4 | G2 (3:2:2[Ed]2 [DB] (3:2:2E2 D- (3:2:2D2 B | %37
 B2{/c} d4 (3:2:2!^!B,2 G, | A,2 (3:2:2[CGc]2 c- c2 [Ge]2- | %39
 [Ge]2 (3:2:2e2 c- (3:2:2c2 F (3:2:2[CG]2 C- | (3:2:2C2 G (3!^!dBd- d4 | %41
 !^![CEc]2- (3:2:2[CEc]2 !^![B,DB]- [B,DB]2 [CEG]2 | %42
 (3:2:2[A,DF]2 E (3:2:2[Fe]2 [Cc]- (3:2:2[Cc]2 C (3FGA | %43
 [FGc]2 (3:2:2[FGe]2 c- (3:2:2c2 A, (3:2:2[CF]2 G |{/c} d2 (3:2:2d2 [DGB]- [DGB]2 d2 | %45
 [B,DG]2 (3:2:2G2 [CEA]- [CEA]2 (3:2:2B2 c- | (3:2:2c2 c (3:2:2[Ge]2 [Gc]- [Gc]2 (3!^!cBA | %47
 (3cBA (3:2:2[Ge]2 [Gc]- [Gc]2 (3EFG- | G2 (3:2:2[Gd]2 [DB]- [DB]2 (3FE[Dd] | %49
 (3FE[DB]- (3:2:2[DB]2 [Gd]- (3:2:2[Gd]2 C (3DE[Gd]- | [Gd]8 |] %51
V:2
!mf! (3:2:2F,,2 F, (3CDG,- G,4 | (3:2:2G,,2 G, B,6 | (3:2:2E,,2 E,- (3:2:2E,2 [G,B,]- [G,B,]4 | %3
 (3:2:2A,,2 E,- (3:2:2E,2 G,- G,4 | (3:2:2F,,2 F, A,2- (3:2:2A,2 E, F,2 | %5
 (3:2:2B,,2 F, (3:2:2G,2 C- (3:2:2C2 G,- G,2 | (3:2:2E,,2 E, (3:2:2B,2 G,- G,2 (3:2:2B,2 G, | %7
 (3G,,2"_cresc." C2 C2 (3F,2 C,2 A,,2 | (3:2:2F,,2 F,- F,>F, (3:2:2C2 G, (3:2:2C2 G, | %9
 (3:2:2G,,2 D, (3:2:2B,2 G,- G,4 | (3:2:2E,,2 E, (3:2:2B,2 G, (3:2:2G,,2 D, (3:2:2B,2 G, | %11
 (3:2:2[A,,A,]2 E, (3:2:2[A,C]2 [EGAc]- (3:2:2[EGAc]2 E,, A,,2 | %12
 (3:2:2[D,,D,]2 A,- (3:2:2A,2 C (3:2:2D,2 A,- (3:2:2A,2 C | %13
 (3:2:2[F,,C,F,]2 F, (3:2:2C2 G, (3:2:2C2 E, (3:2:2[C,C]2 G, | %14
 (3:2:2G,,2 D, (3:2:2C2 G, C2- (3:2:2C2 G, | %15
 (3:2:2G,,2 [G,F] (3:2:2[B,B]2 [CGc]- (3:2:2[CGc]2 B,- (3:2:2B,2 G, |"_cresc." [C,,C,]6 G,2 | %17
 C2- (3:2:2C2 B,- (3:2:2B,2 G, G,,2 | %18
 (3:2:2[F,,,F,,]2 F, (3[A,C][F,A,C][F,A,C] (3:2:2[F,A,C]2 A, (3:2:2G, A,2 | %19
 (3:2:2F,,2 F, (3[G,C][G,C]G, (3:2:2[F,C]2 F, [G,C]2 | %20
 (3:2:2[G,,,G,,]2 G, (3B,B,[G,B,] (3:2:2[D,B,]2 G, (3:2:2B,2 D, | %21
 [G,,F,]2 (3:2:2B,2 C,- (3C,G,D, [G,,G,]2 | %22
 (3:2:2[F,,,F,,]2 F, (3[CFG][CFG][CFGc] (3:2:2[CFG]2 F, (3:2:2C2 G, | %23
 (3:2:4!^![F,,F,]2 !^![G,,G,]2 E,[A,,F,A,]- (3:2:2[A,,F,A,]2 [A,C]- (3:2:2[A,C]2 [G,,,G,,]- | %24
 (3:2:2[G,,,G,,]2 [E,D] (3[E,G,B,][E,B,][E,B,] (3:2:2[E,G,B,]2 G, (3:2:2[B,DG]2 G, | %25
 (3:2:2!^![C,,C,]2 E, (3:2:2G,2 G,, (3:2:2G,2 C, [E,,E,]2 | %26
 (3:2:2[D,,D,]2 A,, (3:2:2D,2 [F,,F,]- (3:2:2[F,,F,]2 D, (3:2:2A,2 A,, | %27
 [D,,D,]2 (3:2:2A,2 [A,,A,] (3:2:2D,2 F, A,2 | %28
 (3:2:2[G,,G,]2 D, (3:2:2[G,D]2 [G,B,D] (3:2:2D,2 A,, (3:2:2A,2 B,, | %29
 (3:2:2!^![D,,D,]2 G,, (3:2:2D,2 !^![E,,E,]- (3:2:2[E,,E,]2 E, E,,2 | %30
 (3:2:2[F,,C,F,]2 F, G,2 (3:2:2G,2 F, G,2 | (3:2:4[F,,F,G,]2 F,2 G,F,- (3:2:2F,2 G,- G,2 | %32
"_dim." (3:2:2[G,,,G,,]2 D, (3[G,B,]B,B, G,2 (3:2:2B,2 G, | %33
 (3:2:2G,,2 D, B,2 (3:2:2G,2 G, (3:2:2G,2 G, | %34
 (3:2:2F,,2 F, (3:2:2A,2 G,- (3:2:2G,2 F, (3[G,C]A,C- | %35
 (3:2:2C2 F, (3:2:2C2 G,- (3:2:2G,2 G, (3:2:2C2 G, | %36
 (3:2:2G,,2 D, (3:2:2[G,B,]2 D,- (3:2:2D,2 D, (3:2:2B,2 G,- | %37
 (3:2:2G,2 D, (3:2:2B,2 G,- (3:2:2G,2 D,- D,2 | %38
 (3:2:2F,,2 F, (3:2:2A,2 G, (3:2:2G,2 F, (3[G,C]A,C | (3:2:2F,2 G, C2 (3:2:2G,2 F,- (3:2:2F,2 G, | %40
 G,,2 (3:2:2B,2 G, (3:2:2D2 G, (3:2:2B,2 B, | %41
 (3:2:2!^![C,,C,]2 C, (3:2:2G,2 !^!G,,- (3:2:2G,,2 G,, !^![E,,E,]2 | %42
 (3:2:2D,,2 A,, (3:2:2D,2 D,,- (3:2:2D,,2 D, D,,2 | (3:2:2D,,2 A,- (3:2:2A,2 D, D,,4 | %44
 (3:2:2G,,2 D, (3:2:2C2 G,- (3:2:2G,2 D, (3:2:2C2 [G,B,] | %45
 (3:2:2G,,2 G, (3:2:2D,2 A,,- (3:2:2A,,2 E, G,2 | %46
 (3:2:2F,,2 F, (3:2:2C2 G,- (3:2:2G,2 F,"_dim." (3:2:2C2 G, | %47
 (3:2:2F,,2 F, (3:2:2C2 G,- (3:2:2G,2 F, G,2 | %48
 (3:2:2G,,2 D, (3:2:2B,2 [D,G,]- (3:2:2[D,G,]2 D, (3:2:2C2 G, | %49
 (3:2:2D,2 D, (3:2:2B,2 G, (3A,B,D, (3:2:2B,2 [G,CD]- | [G,CD]8 |] %51

